X:4912
T:Paddy Carey. HSJJ.187
O:england
M:6/8
L:1/8
S:HSJ Jackson,Wyresdale,Lancs.1823
R:Jig
A:Lancashire
H:1823
K:D
d|A2d dcd|f2d dcd|B2ee2f|g2ec2A|A2d dcd|f2d dcd|
ecA ABc|e3d2:||:z|d2fg2b|a2b afd|d2fg2b|gfde3|
d2fg2b|a2b afd|dcB ABc|e3def|g2e ede|f2d dcd|
ecA ABc|dec def|g2e ede|f2d dcd|ecA ABc|e3"DC"d2:|]


